src/pos-icons/oil-level.svg

<svg height="24" viewBox="0 0 24 24" width="24" xmlns="http://www.w3.org/2000/svg"><path d="m8 18c-1.33 0-2.21.79-2.71 1.29s-.62.71-1.29.71-.79-.21-1.29-.71c-.36-.36-.92-.87-1.71-1.13v2.25c.09.09.18.18.29.3.5.5 1.38 1.29 2.71 1.29s2.21-.79 2.71-1.29.62-.71 1.29-.71.79.21 1.29.71c.44.43 1.15 1.09 2.21 1.25.16.04.33.04.5.04 1.33 0 2.21-.79 2.71-1.29s.62-.71 1.29-.71.79.21 1.29.71 1.38 1.29 2.71 1.29 2.21-.79 2.71-1.29c.11-.12.2-.21.29-.3v-2.25c-.79.26-1.35.77-1.71 1.13-.5.5-.62.71-1.29.71s-.79-.21-1.29-.71-1.38-1.29-2.71-1.29-2.21.79-2.71 1.29-.62.71-1.29.71c-.22 0-.37-.03-.5-.08-.28-.1-.45-.29-.79-.63-.5-.5-1.38-1.29-2.71-1.29m14-7.5s2 2.17 2 3.5c0 1.1-.9 2-2 2s-2-.9-2-2c0-1.33 2-3.5 2-3.5m.5-3.37-3.26-1.89-6.51 3.76c-.34-.6-.99-1-1.73-1h-2v-2h1c.55 0 1-.45 1-1s-.45-1-1-1h-4c-.55 0-1 .45-1 1s.45 1 1 1h1v2h-2c-1.1 0-2 .9-2 2v3c0 1.1.9 2 2 2h9c.75 0 1.41-.42 1.75-1.03l3.65-6.32 2.1 1.21c.5.28 1.09.11 1.37-.36.27-.5.13-1.1-.37-1.37m-8.5 5.87h-9v-3h6.69l.91 1.43 3.46-2zm-10.5-6.08-1.71 1.7a1 1 0 0 1 -1.41-1.41l1.71-1.71a1 1 0 0 1 1.41 0c.39.39.39 1 0 1.42z"/></svg>

<?xml version="1.0" encoding="UTF-8"?><!DOCTYPE svg PUBLIC "-//W3C//DTD SVG 1.1//EN" "http://www.w3.org/Graphics/SVG/1.1/DTD/svg11.dtd"><svg xmlns="http://www.w3.org/2000/svg" xmlns:xlink="http://www.w3.org/1999/xlink" version="1.1" id="mdi-oil-level" width="24" height="24" viewBox="0 0 24 24"><path d="M8 18C6.67 18 5.79 18.79 5.29 19.29S4.67 20 4 20 3.21 19.79 2.71 19.29C2.35 18.93 1.79 18.42 1 18.16V20.41C1.09 20.5 1.18 20.59 1.29 20.71C1.79 21.21 2.67 22 4 22S6.21 21.21 6.71 20.71 7.33 20 8 20 8.79 20.21 9.29 20.71C9.73 21.14 10.44 21.8 11.5 21.96C11.66 22 11.83 22 12 22C13.33 22 14.21 21.21 14.71 20.71S15.33 20 16 20 16.79 20.21 17.29 20.71 18.67 22 20 22 22.21 21.21 22.71 20.71C22.82 20.59 22.91 20.5 23 20.41V18.16C22.21 18.42 21.65 18.93 21.29 19.29C20.79 19.79 20.67 20 20 20S19.21 19.79 18.71 19.29 17.33 18 16 18 13.79 18.79 13.29 19.29 12.67 20 12 20C11.78 20 11.63 19.97 11.5 19.92C11.22 19.82 11.05 19.63 10.71 19.29C10.21 18.79 9.33 18 8 18M22 10.5C22 10.5 24 12.67 24 14C24 15.1 23.1 16 22 16S20 15.1 20 14C20 12.67 22 10.5 22 10.5M22.5 7.13L19.24 5.24L12.73 9C12.39 8.4 11.74 8 11 8H9V6H10C10.55 6 11 5.55 11 5S10.55 4 10 4H6C5.45 4 5 4.45 5 5S5.45 6 6 6H7V8H5C3.9 8 3 8.9 3 10V13C3 14.1 3.9 15 5 15H14C14.75 15 15.41 14.58 15.75 13.97L19.4 7.65L21.5 8.86C22 9.14 22.59 8.97 22.87 8.5C23.14 8 23 7.4 22.5 7.13M14 13H5V10H11.69L12.6 11.43L16.06 9.43L14 13M3.5 6.92L1.79 8.62A1 1 0 0 1 .38 7.21L2.09 5.5A1 1 0 0 1 3.5 5.5C3.89 5.89 3.89 6.5 3.5 6.92Z" /></svg>
